assets/2023/icons/erlang.svg

<svg width="16" height="16" viewBox="0 0 16 16" fill="none" xmlns="http://www.w3.org/2000/svg">
<path d="M13.4005 10.4941C13.6574 9.93558 13.8608 9.31138 14 8.63243L11.9552 8.3039C11.6555 9.54135 11.0452 10.7898 9.79269 11.1949C7.96203 11.7863 6.7523 10.4174 6.10996 8.35865L12.9401 6.13562C12.6083 4.89817 11.8589 3.47455 11.0024 2.9051C9.95328 2.21519 8.63648 1.60194 6.04572 2.3247C3.19803 3.12412 2.3844 5.70853 2.3844 5.70853C1.91336 6.90218 1.85983 8.282 2.30946 9.71657C2.81263 11.3483 3.73331 12.6076 4.98587 13.2209C6.09925 13.7684 7.72651 14.3926 9.91045 13.6808C12.0837 12.9799 13.4005 10.4941 13.4005 10.4941ZM5.63891 6.57365C5.4248 5.62093 5.94937 4.7558 6.78441 4.48203C7.63016 4.20826 8.44378 4.63534 8.75425 5.55522L5.63891 6.57365Z" fill="#E92A26"/>
</svg>

<svg xmlns="http://www.w3.org/2000/svg" width="16" height="16" fill="none" viewBox="0 0 16 16"><path fill="#E92A26" d="M13.4 10.494a8.6 8.6 0 0 0 .6-1.862l-2.045-.328c-.3 1.237-.91 2.486-2.162 2.89-1.831.592-3.04-.777-3.683-2.835l6.83-2.223c-.332-1.238-1.081-2.661-1.938-3.23-1.049-.69-2.366-1.304-4.956-.581-2.848.8-3.662 3.384-3.662 3.384-.47 1.193-.524 2.573-.075 4.008.504 1.631 1.424 2.89 2.677 3.504 1.113.547 2.74 1.172 4.924.46 2.174-.701 3.49-3.187 3.49-3.187m-7.76-3.92c-.214-.953.31-1.818 1.145-2.092.846-.274 1.66.153 1.97 1.073z"/></svg>
